X:1
T:Title
%%score 1 ( 2 3 )
L:1/8
Q:1/4=100
M:6/8
K:Ab
V:1 treble nm="Grand Piano, Soprano"
V:2 bass nm="Choir Pad, I�m Happy in Jesus"
V:3 bass 
V:1
 [CE] [Ec]2 [Ec] [=D_c]2 | [=D_c] [E=c]2- [Ec] [CA]2 | [CE] [DF]2 [FA] [Fd]2 | %3
w: By~Mabeth~Kilgore * * *|||
 [Fd] [Ec]2- [Ec]2- [Ec]/ z/ | [Ec] [EB]2 [EB] [Ec]2 | [A=d] [Ge]2 [Ec] [EB]2 | %6
w: |||
 [Ec][EG][EG] [EG] [=DA]2 | [=DF] [EB]2- [EB]2- [EB]/ z/ | [DE] [Cc]2 [Ec] [DB]2 | %9
w: |||
 [CA] [DG]2- [DG] [Dd]2 | [EG] [EG]2 [DF] [DE]2 | [Ed] [Ec]2- [Ec]2- [Ec]/ z/ | %12
w: |||
 [CE] [DF]2 [DF] [DG]2 | [DG] [CA]2 [CA] [Ee]2 | [Fd][Ec][Ed] [Ec] [Ec]2 | %15
w: |||
 [DB] [CA]2- [CA]2- [CA]/ z/ | [CE][CE][CF] [CG][EA][EG] | [EA] [Ed]2 [Fd] [Ed]2 | %18
w: |||
 [DE][CE][CF] [CG][Cc][DG] | [CA] [Ec]2 [Ec] [Ec]2 | [CE][CE][DF] [EG][EA][EG] | %21
w: |||
 [EA][DF][EG] [EA][Ed][Ec] | [_Ge][Fe][Fd] [Ec][DB][Ec] | [DB] [CA]2- [CA]3- | [CA]3 z3 |] %25
w: ||||
V:2
 [A,,A,] [A,,A,]2 [A,,A,] [A,,F,]2 | [A,,F,] [A,,E,]2- [A,,E,] [A,,E,]2 | %2
 [A,,A,] [D,A,]2 [D,A,] [D,A,]2 | [D,A,] [A,,A,]2- [A,,A,]2- [A,,A,]/ z/ | %4
 [A,,A,] [E,G,]2 [E,G,] A,2 | [F,B,] [E,B,]2 [E,A,] [E,G,]2 | %6
 [A,,A,][B,,E,][B,,G,] [B,,B,] [B,,B,]2 | [A,B,] [G,B,]2- [G,B,] [E,G,]2 | %8
 [E,G,] [A,,A,]2 [A,,A,] [E,G,]2 | [E,A,] [E,B,]2- [E,B,] [E,G,]2 | [E,G,] [E,B,]2 [E,A,] [E,G,]2 | %11
 [G,B,] A,2- A,2- A,/ z/ | [A,,A,] [D,A,]2 [B,,B,] [E,B,]2 | [E,B,] [F,A,]2 [F,A,] [C,A,]2 | %14
 [D,A,][E,A,][E,B,] [E,A,] [E,G,]2 | E, E,2- E, A,2 | [A,,A,][A,,E,][A,,E,] [A,,E,][C,A,][C,A,] | %17
 [_C,A,] [B,,G,]2 [E,A,] [E,G,]2 | [E,G,][A,,A,][A,,A,] [A,,A,][A,,E,][B,,E,] | %19
 [A,,E,] [A,,A,]2 [A,,A,] [A,,A,]2 | [A,,A,][A,,A,][D,A,] [D,B,][C,A,][C,A,] | %21
 [C,A,][D,A,][D,B,] [C,A,][B,,G,][A,,A,] | [B,,A,][D,A,][D,A,] [E,A,] [E,G,]2 | %23
 [E,G,] [A,,A,]2- [A,,A,]3- | [A,,A,]3 z3 |] %25
V:3
 x6 | x6 | x6 | x6 | x6 | x6 | x6 | x6 | x6 | x6 | x6 | x6 | x6 | x6 | x6 | z A,,2- A,,2- A,,/ z/ | %16
 x6 | x6 | x6 | x6 | x6 | x6 | x6 | x6 | x6 |] %25

